;main2
@1v75

r1
r1
r1
r1
; 4
r1
r1
r1
r1
; 8
r1
r1
r1
r1
; 12
r1
r1
r1
r1
; 16
d+8 r16 d+16 d+16 d+16 c+16 d+16 d+8 r16 d+16 d+16 d+16 c+16 d+16
d+8 r16 d+16 d+16 d+16 c+16 d+16 d+16. r32 d+16 f+16 g+16. r32 f+16 g+16
d+8 r16 d+16 d+16 d+16 c+16 d+16 d+8 r16 d+16 d+16 d+16 c+16 d+16
d+8 r16 d+16 d+16 d+16 c+16 d+16 g+16. r32 f+16 g+16 f+16. r32 d+16 f+16
; 20
d+8 r16 d+16 d+16 d+16 c+16 d+16 d+8 r16 d+16 d+16 d+16 c+16 d+16
d+8 r16 d+16 d+16 d+16 c+16 d+16 d+16. r32 d+16 f+16 g+16. r32 f+16 g+16
d+8 r16 d+16 d+16 d+16 c+16 d+16 d+8 r16 d+16 d+16 d+16 c+16 d+16
d+8 r16 d+16 d+16 d+16 c+16 d+16 g+12 f+12 g+12 f+12 d+12 f+12
; 24
v10
d+8 r16 d+16 d+16 d+16 c+16 d+16 d+8 r16 d+16 d+16 d+16 c+16 d+16
d+8 r16 d+16 d+16 d+16 c+16 d+16 d+16. r32 d+16 f+16 g+16. r32 f+16 g+16
d+8 r16 d+16 d+16 d+16 c+16 d+16 d+8 r16 d+16 d+16 d+16 c+16 d+16
d+8 r16 d+16 d+16 d+16 c+16 d+16 d+16. r32 d+16 f+16 g+16. r32 f+16 g+16
; 28
d+8 r16 d+16 d+16 d+16 c+16 d+16 d+8 r16 d+16 d+16 d+16 c+16 d+16
d+8 r16 d+16 d+16 d+16 c+16 d+16 d+16. r32 d+16 f+16 g+16. r32 f+16 g+16
d+8 r16 d+16 d+16 d+16 c+16 d+16 d+8 r16 d+16 d+16 d+16 c+16 d+16
d+8 r16 d+16 d+16 d+16 c+16 d+16 d+16. r32 d+16 f+16 g+16. r32 f+16 g+16
; 32
d+8 r16 d+16 d+16 d+16 c+16 d+16 d+8 r16 d+16 d+16 d+16 c+16 d+16
d+8 r16 d+16 d+16 d+16 c+16 d+16 d+16. r32 d+16 f+16 g+16. r32 f+16 g+16
d+8 r16 d+16 d+16 d+16 c+16 d+16 d+8 r16 d+16 d+16 d+16 c+16 d+16
d+8 r16 d+16 d+16 d+16 c+16 d+16 d+16. r32 d+16 f+16 g+16. r32 f+16 g+16
; 36
d+8 r16 d+16 d+16 d+16 c+16 d+16 d+8 r16 d+16 d+16 d+16 c+16 d+16
d+8 r16 d+16 d+16 d+16 c+16 d+16 d+16. r32 d+16 f+16 g+16. r32 f+16 g+16
d+8 r16 d+16 d+16 d+16 c+16 d+16 d+8 r16 d+16 d+16 d+16 c+16 d+16
d+8 r16 d+16 d+16 d+16 c+16 d+16 d+16. r32 d+16 f+16 g+16. r32 f+16 g+16
; 40
d+8 r16 d+16 d+16 d+16 c+16 d+16 d+8 r16 d+16 d+16 d+16 c+16 d+16
d+8 r16 d+16 d+16 d+16 c+16 d+16 d+16. r32 d+16 f+16 g+16. r32 f+16 g+16
d+8 r16 d+16 d+16 d+16 c+16 d+16 d+8 r16 d+16 d+16 d+16 c+16 d+16
d+8 r16 d+16 d+16 d+16 c+16 d+16 d+16. r32 d+16 f+16 g+16. r32 f+16 g+16
; 44
d+8 r16 d+16 d+16 d+16 c+16 d+16 d+8 r16 d+16 d+16 d+16 c+16 d+16
d+8 r16 d+16 d+16 d+16 c+16 d+16 d+16. r32 d+16 f+16 g+16. r32 f+16 g+16
d+8 r16 d+16 d+16 d+16 c+16 d+16 d+8 r16 d+16 d+16 d+16 c+16 d+16
d+8 r16 d+16 d+16 d+16 c+16 d+16 d+16. r32 d+16 f+16 g+16. r32 f+16 g+16
; 48
d+8 r16 d+16 d+16 d+16 c+16 d+16 d+8 r16 d+16 d+16 d+16 c+16 d+16
d+8 r16 d+16 d+16 d+16 c+16 d+16 d+16. r32 d+16 f+16 g+16. r32 f+16 g+16
d+8 r16 d+16 d+16 d+16 c+16 d+16 d+8 r16 d+16 d+16 d+16 c+16 d+16
d+8 r16 d+16 d+16 d+16 c+16 d+16 d+16. r32 d+16 f+16 g+16. r32 f+16 g+16
; 52
d+8 r16 d+16 d+16 d+16 c+16 d+16 d+8 r16 d+16 d+16 d+16 c+16 d+16
d+8 r16 d+16 d+16 d+16 c+16 d+16 d+16. r32 d+16 f+16 g+16. r32 f+16 g+16
d+8 r16 d+16 d+16 d+16 c+16 d+16 d+8 r16 d+16 d+16 d+16 c+16 d+16
d+8 r16 d+16 d+16 d+16 c+16 d+16 d+16. r32 d+16 f+16 g+16. r32 f+16 g+16
; 56
d+8 r16 d+16 d+16 d+16 c+16 d+16 d+8 r16 d+16 d+16 d+16 c+16 d+16
d+8 r16 d+16 d+16 d+16 c+16 d+16 d+16. r32 d+16 f+16 g+16. r32 f+16 g+16
d+8 r16 d+16 d+16 d+16 c+16 d+16 d+8 r16 d+16 d+16 d+16 c+16 d+16
d+8 r16 d+16 d+16 d+16 c+16 d+16 d+16. r32 d+16 f+16 g+16. r32 f+16 g+16
; 60
d+8 r16 d+16 d+16 d+16 c+16 d+16 d+8 r16 d+16 d+16 d+16 c+16 d+16
d+8 r16 d+16 d+16 d+16 c+16 d+16 d+16. r32 d+16 f+16 g+16. r32 f+16 g+16
d+8 r16 d+16 d+16 d+16 c+16 d+16 d+8 r16 d+16 d+16 d+16 c+16 d+16
d+8 r16 d+16 d+16 d+16 c+16 d+16 d+16. r32 d+16 f+16 g+16. r32 f+16 g+16
; 64
d+8 r16 d+16 d+16 d+16 c+16 d+16 d+8 r16 d+16 d+16 d+16 c+16 d+16
d+8 r16 d+16 d+16 d+16 c+16 d+16 d+16. r32 d+16 f+16 g+16. r32 f+16 g+16
d+8 r16 d+16 d+16 d+16 c+16 d+16 d+8 r16 d+16 d+16 d+16 c+16 d+16
d+8 r16 d+16 d+16 d+16 c+16 d+16 d+16. r32 d+16 f+16 g+16. r32 f+16 g+16
; 68
d+8 r16 d+16 d+16 d+16 c+16 d+16 d+8 r16 d+16 d+16 d+16 c+16 d+16
d+8 r16 d+16 d+16 d+16 c+16 d+16 d+16. r32 d+16 f+16 g+16. r32 f+16 g+16
d+8 r16 d+16 d+16 d+16 c+16 d+16 d+8 r16 d+16 d+16 d+16 c+16 d+16
v60
g+8 f+8 f8 c+8 v30 g+ f+
; 72
v75
d+8 r16 d+16 d+16 d+16 c+16 d+16 d+8 r16 d+16 d+16 d+16 c+16 d+16
d+8 r16 d+16 d+16 d+16 c+16 d+16 d+16. r32 d+16 f+16 g+16. r32 f+16 g+16
d+8 r16 d+16 d+16 d+16 c+16 d+16 d+8 r16 d+16 d+16 d+16 c+16 d+16
d+8 r16 d+16 d+16 d+16 c+16 d+16 g+16. r32 f+16 g+16 f+16. r32 d+16 f+16
; 76
d+8 r16 d+16 d+16 d+16 c+16 d+16 d+8 r16 d+16 d+16 d+16 c+16 d+16
d+8 r16 d+16 d+16 d+16 c+16 d+16 d+16. r32 d+16 f+16 g+16. r32 f+16 g+16
d+8 r16 d+16 d+16 d+16 c+16 d+16 d+8 r16 d+16 d+16 d+16 c+16 d+16
d+8 r16 d+16 d+16 d+16 c+16 d+16 g+12 f+12 g+12 f+12 d+12 f+12
; 80
d+8 r16 d+16 d+16 d+16 c+16 d+16 d+8 r16 d+16 d+16 d+16 c+16 d+16
d+8 r16 d+16 d+16 d+16 c+16 d+16 d+16. r32 d+16 f+16 g+16. r32 f+16 g+16
d+8 r16 d+16 d+16 d+16 c+16 d+16 d+8 r16 d+16 d+16 d+16 c+16 d+16
d+8 r16 d+16 d+16 d+16 c+16 d+16 g+16. r32 f+16 g+16 f+16. r32 d+16 f+16
; 84
d+8 r16 d+16 d+16 d+16 c+16 d+16 d+8 r16 d+16 d+16 d+16 c+16 d+16
d+8 r16 d+16 d+16 d+16 c+16 d+16 d+16. r32 d+16 f+16 g+16. r32 f+16 g+16
d+8 r16 d+16 d+16 d+16 c+16 d+16 d+8 r16 d+16 d+16 d+16 c+16 d+16
d+8 r16 d+16 d+16 d+16 c+16 d+16 g+12 f+12 g+12 f+12 d+12 f+12
; 88
v10
d+8 r16 d+16 d+16 d+16 c+16 d+16 d+8 r16 d+16 d+16 d+16 c+16 d+16
d+8 r16 d+16 d+16 d+16 c+16 d+16 d+16. r32 d+16 f+16 g+16. r32 f+16 g+16
d+8 r16 d+16 d+16 d+16 c+16 d+16 d+8 r16 d+16 d+16 d+16 c+16 d+16
d+8 r16 d+16 d+16 d+16 c+16 d+16 d+16. r32 d+16 f+16 g+16. r32 f+16 g+16
; 92
d+8 r16 d+16 d+16 d+16 c+16 d+16 d+8 r16 d+16 d+16 d+16 c+16 d+16
d+8 r16 d+16 d+16 d+16 c+16 d+16 d+16. r32 d+16 f+16 g+16. r32 f+16 g+16
d+8 r16 d+16 d+16 d+16 c+16 d+16 d+8 r16 d+16 d+16 d+16 c+16 d+16
d+8 r16 d+16 d+16 d+16 c+16 d+16 d+16. r32 d+16 f+16 g+16. r32 f+16 g+16
; 96
d+8 r16 d+16 d+16 d+16 c+16 d+16 d+8 r16 d+16 d+16 d+16 c+16 d+16
d+8 r16 d+16 d+16 d+16 c+16 d+16 d+16. r32 d+16 f+16 g+16. r32 f+16 g+16
d+8 r16 d+16 d+16 d+16 c+16 d+16 d+8 r16 d+16 d+16 d+16 c+16 d+16
d+8 r16 d+16 d+16 d+16 c+16 d+16 d+16. r32 d+16 f+16 g+16. r32 f+16 g+16
; 100
d+8 r16 d+16 d+16 d+16 c+16 d+16 d+8 r16 d+16 d+16 d+16 c+16 d+16
d+8 r16 d+16 d+16 d+16 c+16 d+16 d+16. r32 d+16 f+16 g+16. r32 f+16 g+16
d+8 r16 d+16 d+16 d+16 c+16 d+16 d+8 r16 d+16 d+16 d+16 c+16 d+16
d+8 r16 d+16 d+16 d+16 c+16 d+16 d+16. r32 d+16 f+16 g+16. r32 f+16 g+16
; 104
d+8 r16 d+16 d+16 d+16 c+16 d+16 d+8 r16 d+16 d+16 d+16 c+16 d+16
d+8 r16 d+16 d+16 d+16 c+16 d+16 d+16. r32 d+16 f+16 g+16. r32 f+16 g+16
d+8 r16 d+16 d+16 d+16 c+16 d+16 d+8 r16 d+16 d+16 d+16 c+16 d+16
d+8 r16 d+16 d+16 d+16 c+16 d+16 d+16. r32 d+16 f+16 g+16. r32 f+16 g+16
; 108
d+8 r16 d+16 d+16 d+16 c+16 d+16 d+8 r16 d+16 d+16 d+16 c+16 d+16
d+8 r16 d+16 d+16 d+16 c+16 d+16 d+16. r32 d+16 f+16 g+16. r32 f+16 g+16
d+8 r16 d+16 d+16 d+16 c+16 d+16 d+8 r16 d+16 d+16 d+16 c+16 d+16
d+8 r16 d+16 d+16 d+16 c+16 d+16 d+16. r32 d+16 f+16 g+16. r32 f+16 g+16
; 112
d+8 r16 d+16 d+16 d+16 c+16 d+16 d+8 r16 d+16 d+16 d+16 c+16 d+16
d+8 r16 d+16 d+16 d+16 c+16 d+16 d+16. r32 d+16 f+16 g+16. r32 f+16 g+16
d+8 r16 d+16 d+16 d+16 c+16 d+16 d+8 r16 d+16 d+16 d+16 c+16 d+16
d+8 r16 d+16 d+16 d+16 c+16 d+16 d+16. r32 d+16 f+16 g+16. r32 f+16 g+16
; 116
d+8 r16 d+16 d+16 d+16 c+16 d+16 d+8 r16 d+16 d+16 d+16 c+16 d+16
d+8 r16 d+16 d+16 d+16 c+16 d+16 d+16. r32 d+16 f+16 g+16. r32 f+16 g+16
d+8 r16 d+16 d+16 d+16 c+16 d+16 d+8 r16 d+16 d+16 d+16 c+16 d+16
d+8 r16 d+16 d+16 d+16 c+16 d+16 d+16. r32 d+16 f+16 g+16. r32 f+16 g+16
; 120
d+8 r16 d+16 d+16 d+16 c+16 d+16 d+8 r16 d+16 d+16 d+16 c+16 d+16
d+8 r16 d+16 d+16 d+16 c+16 d+16 d+16. r32 d+16 f+16 g+16. r32 f+16 g+16
d+8 r16 d+16 d+16 d+16 c+16 d+16 d+8 r16 d+16 d+16 d+16 c+16 d+16
d+8 r16 d+16 d+16 d+16 c+16 d+16 d+16. r32 d+16 f+16 g+16. r32 f+16 g+16
; 124
d+8 r16 d+16 d+16 d+16 c+16 d+16 d+8 r16 d+16 d+16 d+16 c+16 d+16
d+8 r16 d+16 d+16 d+16 c+16 d+16 d+16. r32 d+16 f+16 g+16. r32 f+16 g+16
d+8 r16 d+16 d+16 d+16 c+16 d+16 d+8 r16 d+16 d+16 d+16 c+16 d+16
d+8 r16 d+16 d+16 d+16 c+16 d+16 d+16. r32 r8 r
; 128
e8 r16 e16 e16 e16 d16 e16 e8 r16 e16 e16 e16 d16 e16
e8 r16 e16 e16 e16 d16 e16 e16. r32 e16 g16 a16. r32 g16 a16
e8 r16 e16 e16 e16 d16 e16 e8 r16 e16 e16 e16 d16 e16
e8 r16 e16 e16 e16 d16 e16 e16. r32 e16 g16 a16. r32 g16 a16
; 132
e8 r16 e16 e16 e16 d16 e16 e8 r16 e16 e16 e16 d16 e16
e8 r16 e16 e16 e16 d16 e16 e16. r32 e16 g16 a16. r32 g16 a16
e8 r16 e16 e16 e16 d16 e16 e8 r16 e16 e16 e16 d16 e16
e8 r16 e16 e16 e16 d16 e16 e8 r8 e8 r8
; 136
e8 r16 e16 e16 e16 d16 e16 e8 r16 e16 e16 e16 d16 e16
e8 r16 e16 e16 e16 d16 e16 e8 r16 e16 e16 e16 d16 e16
e8 r16 e16 e16 e16 d16 e16 e8 r16 e16 e16 e16 d16 e16
e8 r16 e16 e16 e16 d16 e16 e16. r32 e16 g16 a16. r32 g16 a16
; 140
e8 r16 e16 e16 e16 d16 e16 e8 r16 e16 e16 e16 d16 e16
e8 r16 e16 e16 e16 d16 e16 e8 r16 e16 e16 e16 d16 e16
e8 r16 e16 e16 e16 d16 e16 e8 r16 e16 e16 e16 d16 e16
e8 r16 e16 e16 e16 d16 e16 e16. r32 e16 g16 a16. r32 g16 a16
; 144
e8 r16 e16 e16 e16 d16 e16 e8 r16 e16 e16 e16 d16 e16
e8 r16 e16 e16 e16 d16 e16 e8 r16 e16 e16 e16 d16 e16
e8 r16 e16 e16 e16 d16 e16 e8 r16 e16 e16 e16 d16 e16
e8 r16 e16 e16 e16 d16 e16 e16. r32 e16 g16 a16. r32 g16 a16
; 148
e8 r16 e16 e16 e16 d16 e16 e8 r16 e16 e16 e16 d16 e16
e8 r16 e16 e16 e16 d16 e16 e8 r16 e16 e16 e16 d16 e16
e8 r16 e16 e16 e16 d16 e16 e8 r16 e16 e16 e16 d16 e16
e8 r16 e16 e16 e16 d16 e16 e16. r32 e16 g16 a16. r32 g16 a16
; 152
e8 r16 e16 e16 e16 d16 e16 e8 r16 e16 e16 e16 d16 e16
e8 r16 e16 e16 e16 d16 e16 e16. r32 e16 g16 a16. r32 g16 a16
e8 r16 e16 e16 e16 d16 e16 e8 r16 e16 e16 e16 d16 e16
e8 r16 e16 e16 e16 d16 e16 e16. r32 e16 g16 a16. r32 g16 a16
; 156
e8 r16 e16 e16 e16 d16 e16 e8 r16 e16 e16 e16 d16 e16
e8 r16 e16 e16 e16 d16 e16 e16. r32 e16 g16 a16. r32 g16 a16
e8 r16 e16 e16 e16 d16 e16 e8 r16 e16 e16 e16 d16 e16
e8 r16 e16 e16 e16 d16 e16 e16. r32 e16 g16 a16. r32 g16 a16
; 160
e8 r16 e16 e16 e16 d16 e16 e8 r16 e16 e16 e16 d16 e16
e8 r16 e16 e16 e16 d16 e16 e16. r32 e16 g16 a16. r32 g16 a16
e8 r16 e16 e16 e16 d16 e16 e8 r16 e16 e16 e16 d16 e16
e8 r16 e16 e16 e16 d16 e16 e16. r32 e16 g16 a16. r32 g16 a16
; 164
e8 r16 e16 e16 e16 d16 e16 e8 r16 e16 e16 e16 d16 e16
e8 r16 e16 e16 e16 d16 e16 e16. r32 e16 g16 a16. r32 g16 a16
e8 r16 e16 e16 e16 d16 e16 e8 r16 e16 e16 e16 d16 e16
e8 r16 e16 e16 e16 d16 e16 e16. r32 e16 g16 a16. r32 g16 a16
; 168
v5
d16 e8. e8 e8  d16 e8. e8 e8
d16 e8. e8 e8  d16 e8. e8 e8
v3
d16 e8. e8 e8  d16 e8. e8 e8
v2
d16 e8. e8 e8  d16 e8. e8 e8
; 172
